build/images/icons/edit.svg

<svg enable-background="new 0 0 477.873 477.873" viewBox="0 0 477.873 477.873" xmlns="http://www.w3.org/2000/svg" fill="#1d1d1b" width="20" height="20"><path d="m392.533 238.937c-9.426 0-17.067 7.641-17.067 17.067v170.666c0 9.426-7.641 17.067-17.067 17.067h-307.199c-9.426 0-17.067-7.641-17.067-17.067v-341.333c0-9.426 7.641-17.067 17.067-17.067h204.8c9.426 0 17.067-7.641 17.067-17.067s-7.641-17.066-17.067-17.066h-204.8c-28.277 0-51.2 22.923-51.2 51.2v341.333c0 28.277 22.923 51.2 51.2 51.2h307.2c28.277 0 51.2-22.923 51.2-51.2v-170.667c0-9.425-7.641-17.066-17.067-17.066z"/><path d="m458.742 19.142c-12.254-12.256-28.875-19.14-46.206-19.138-17.341-.05-33.979 6.846-46.199 19.149l-224.803 224.784c-1.865 1.879-3.272 4.163-4.113 6.673l-34.133 102.4c-2.979 8.943 1.856 18.607 10.799 21.585 1.735.578 3.552.873 5.38.875 1.832-.003 3.653-.297 5.393-.87l102.4-34.133c2.515-.84 4.8-2.254 6.673-4.13l224.802-224.802c25.515-25.512 25.518-66.878.007-92.393z"/></svg>

<svg viewBox="0 0 477.873 477.873" xmlns="http://www.w3.org/2000/svg" fill="#1d1d1b" width="20" height="20"><path d="M392.533 238.937c-9.426 0-17.067 7.641-17.067 17.067V426.67c0 9.426-7.641 17.067-17.067 17.067H51.2c-9.426 0-17.067-7.641-17.067-17.067V85.337c0-9.426 7.641-17.067 17.067-17.067H256c9.426 0 17.067-7.641 17.067-17.067S265.426 34.137 256 34.137H51.2C22.923 34.137 0 57.06 0 85.337V426.67c0 28.277 22.923 51.2 51.2 51.2h307.2c28.277 0 51.2-22.923 51.2-51.2V256.003c0-9.425-7.641-17.066-17.067-17.066z"/><path d="M458.742 19.142A65.328 65.328 0 00412.536.004a64.85 64.85 0 00-46.199 19.149L141.534 243.937a17.254 17.254 0 00-4.113 6.673l-34.133 102.4c-2.979 8.943 1.856 18.607 10.799 21.585 1.735.578 3.552.873 5.38.875a17.336 17.336 0 005.393-.87l102.4-34.133c2.515-.84 4.8-2.254 6.673-4.13l224.802-224.802c25.515-25.512 25.518-66.878.007-92.393z"/></svg>
